static/img/starlake_icon_white.svg

<svg fill="none" height="40" viewBox="0 0 41 40" width="41" xmlns="http://www.w3.org/2000/svg"><g fill="#fff"><path d="m24.7298.340821c-.0619.185902.3099 1.735089.8676 3.408209s1.0225 3.22231 1.0225 3.40821c0 .21689-1.6112 1.23935-3.904 2.50969-2.1379 1.17737-3.9039 2.29277-3.9039 2.47867 0 .2789.9604.4028 4.3996.5577l4.3997.2169v1.3943c.1549 4.8644.3718 7.3431.7127 7.3431.1859 0 1.2703-1.6421 2.4167-3.687 1.1154-2.014 2.1688-3.7801 2.2928-3.935.1859-.1859 1.1774 0 3.6251.8056 2.1379.6817 3.4082 1.0225 3.5631.8676.1859-.1859-.6506-1.4253-2.2618-3.5322l-2.5407-3.28427 1.6732-3.34624c2.0759-4.18281 2.0139-4.27576-2.1689-2.1069-1.6421.83657-3.0984 1.54919-3.2533 1.51821-.1239 0-1.6731-1.11542-3.4082-2.4787-1.7351-1.36329-3.2223-2.4787-3.2843-2.4787s-.1859.185902-.2479.371805z"/><path d="m9.51686 22.5251c-3.59412 3.842-6.4756 7.0333-6.38265 7.1262.09295.093 3.28427-2.7885 7.12629-6.3826 5.2672-4.9264 6.9403-6.6305 6.8784-7.0333-.062-.2789-.3099-.5267-.5578-.5577-.4027-.062-2.1068 1.6111-7.03326 6.8784z"/><path d="m22.1582 16.5144c-2.1069 1.9519-21.781552 23.2378-21.657617 23.4237.061967.1239.557707-.1859 1.053447-.6197.49574-.4648 5.29822-4.9574 10.68937-9.9768 12.4245-11.5569 12.4555-11.6189 12.2696-12.3315-.2169-.6816-.3408-.8366-1.0535-1.0534-.4028-.124-.7436 0-1.3013.5267z"/><path d="m17.2008 30.2092c-3.5941 3.8419-6.4756 7.0333-6.3826 7.1262.0929.093 3.2842-2.7885 7.1262-6.3826 5.2673-4.9264 6.9404-6.6305 6.8784-7.0333-.062-.2789-.3098-.5268-.5577-.5577-.4028-.062-2.1069 1.6111-7.0333 6.8783z"/></g></svg>

<svg width="41" height="40" viewBox="0 0 41 40" fill="none" xmlns="http://www.w3.org/2000/svg">
<path d="M24.7298 0.340821C24.6679 0.526723 25.0397 2.07591 25.5974 3.74903C26.1551 5.42215 26.6199 6.97134 26.6199 7.15724C26.6199 7.37413 25.0087 8.39659 22.7159 9.66693C20.578 10.8443 18.812 11.9597 18.812 12.1456C18.812 12.4245 19.7724 12.5484 23.2116 12.7033L27.6113 12.9202V14.3145C27.7662 19.1789 27.9831 21.6576 28.324 21.6576C28.5099 21.6576 29.5943 20.0155 30.7407 17.9706C31.8561 15.9566 32.9095 14.1905 33.0335 14.0356C33.2194 13.8497 34.2109 14.0356 36.6586 14.8412C38.7965 15.5229 40.0668 15.8637 40.2217 15.7088C40.4076 15.5229 39.5711 14.2835 37.9599 12.1766L35.4192 8.89233L37.0924 5.54609C39.1683 1.36328 39.1063 1.27033 34.9235 3.43919C33.2814 4.27576 31.8251 4.98838 31.6702 4.9574C31.5463 4.9574 29.9971 3.84198 28.262 2.4787C26.5269 1.11541 25.0397 0 24.9777 0C24.9157 0 24.7918 0.185902 24.7298 0.371805V0.340821Z" fill="white"/>
<path d="M9.51686 22.5251C5.92274 26.3671 3.04126 29.5584 3.13421 29.6513C3.22716 29.7443 6.41848 26.8628 10.2605 23.2687C15.5277 18.3423 17.2008 16.6382 17.1389 16.2354C17.0769 15.9565 16.829 15.7087 16.5811 15.6777C16.1784 15.6157 14.4743 17.2888 9.54784 22.5561L9.51686 22.5251Z" fill="white"/>
<path d="M22.1582 16.5144C20.0513 18.4663 0.376648 39.7522 0.500583 39.9381C0.56255 40.062 1.05829 39.7522 1.55403 39.3184C2.04977 38.8536 6.85225 34.361 12.2434 29.3416C24.6679 17.7847 24.6989 17.7227 24.513 17.0101C24.2961 16.3285 24.1722 16.1735 23.4595 15.9567C23.0567 15.8327 22.7159 15.9567 22.1582 16.4834V16.5144Z" fill="white"/>
<path d="M17.2008 30.2092C13.6067 34.0511 10.7252 37.2425 10.8182 37.3354C10.9111 37.4284 14.1024 34.5469 17.9444 30.9528C23.2117 26.0264 24.8848 24.3223 24.8228 23.9195C24.7608 23.6406 24.513 23.3927 24.2651 23.3618C23.8623 23.2998 22.1582 24.9729 17.2318 30.2401L17.2008 30.2092Z" fill="white"/>
</svg>
